local/share/icons/dracula-icons-main/scalable/apps/system-software-update.svg

<?xml version="1.0" encoding="UTF-8"?>
<svg xmlns="http://www.w3.org/2000/svg" xmlns:xlink="http://www.w3.org/1999/xlink" width="64" height="64" viewBox="0 0 64 64">
<defs>
<filter id="filter-remove-color" x="0%" y="0%" width="100%" height="100%">
<feColorMatrix color-interpolation-filters="sRGB" values="0 0 0 0 1 0 0 0 0 1 0 0 0 0 1 0 0 0 1 0" />
</filter>
<mask id="mask-0">
<g filter="url(#filter-remove-color)">
<rect x="-6.4" y="-6.4" width="76.8" height="76.8" fill="rgb(0%, 0%, 0%)" fill-opacity="0.1"/>
</g>
</mask>
<clipPath id="clip-0">
<rect x="0" y="0" width="17" height="17"/>
</clipPath>
<g id="source-12520" clip-path="url(#clip-0)">
<path fill-rule="nonzero" fill="rgb(0%, 0%, 100%)" fill-opacity="1" d="M 8.464844 1.324219 C 5.667969 1.324219 3.128906 2.964844 1.96875 5.511719 C 2.496094 9.914062 6.230469 13.230469 10.664062 13.238281 C 11.972656 13.234375 13.261719 12.9375 14.441406 12.375 C 15.203125 11.210938 15.609375 9.855469 15.609375 8.464844 C 15.609375 4.519531 12.410156 1.324219 8.464844 1.324219 Z M 8.464844 1.324219 "/>
</g>
</defs>
<path fill-rule="nonzero" fill="rgb(29.803922%, 54.901961%, 100%)" fill-opacity="1" d="M 15.609375 8.464844 C 15.609375 12.410156 12.410156 15.609375 8.464844 15.609375 C 4.519531 15.609375 1.324219 12.410156 1.324219 8.464844 C 1.324219 4.519531 4.519531 1.324219 8.464844 1.324219 C 12.410156 1.324219 15.609375 4.519531 15.609375 8.464844 Z M 15.609375 8.464844 "/>
<path fill-rule="nonzero" fill="rgb(27.058824%, 49.411765%, 100%)" fill-opacity="1" d="M 8.464844 1.324219 C 4.519531 1.324219 1.324219 4.519531 1.324219 8.464844 C 1.324219 11.5625 3.324219 14.308594 6.269531 15.261719 C 10.699219 15.023438 14.457031 11.9375 15.554688 7.640625 C 15.132812 4.042969 12.089844 1.328125 8.464844 1.324219 Z M 8.464844 1.324219 "/>
<g mask="url(#mask-0)">
<use xlink:href="#source-12520"/>
</g>
<path fill-rule="nonzero" fill="rgb(100%, 100%, 100%)" fill-opacity="1" d="M 5.292969 3.96875 C 5.292969 5.722656 6.714844 7.144531 8.46875 7.144531 C 10.21875 7.144531 11.640625 5.722656 11.640625 3.96875 L 10.847656 3.96875 C 10.847656 5.285156 9.78125 6.351562 8.46875 6.351562 C 7.152344 6.351562 6.085938 5.285156 6.085938 3.96875 Z M 5.292969 3.96875 "/>
<path fill-rule="nonzero" fill="rgb(100%, 100%, 100%)" fill-opacity="1" d="M 7.40625 13.230469 L 9.523438 13.230469 L 9.261719 10.582031 L 10.582031 10.582031 L 8.46875 8.730469 L 6.351562 10.582031 L 7.671875 10.582031 "/>
</svg>

<svg width="64" height="64" version="1.1" viewBox="0 0 16.933 16.933" xmlns="http://www.w3.org/2000/svg">
 <circle cx="8.4665" cy="8.4665" r="7.1436" fill="#4c8cff" style="paint-order:stroke fill markers"/>
 <path d="m8.4666 1.3229a7.1437 7.1437 0 0 0-7.1437 7.1437 7.1437 7.1437 0 0 0 4.9474 6.7939 10.139 10.139 0 0 0 9.2831-7.6207 7.1437 7.1437 0 0 0-7.0868-6.3168z" fill="#457eff" stroke-width="1.4193" style="paint-order:stroke fill markers"/>
 <path d="m8.4666 1.3229a7.1437 7.1437 0 0 0-6.4962 4.1888 8.7671 8.7671 0 0 0 8.6938 7.7255 8.7671 8.7671 0 0 0 3.7758-0.86401 7.1437 7.1437 0 0 0 1.1699-3.9068 7.1437 7.1437 0 0 0-7.1437-7.1437z" fill="#00f" opacity=".1" stroke-width="1.2273" style="paint-order:stroke fill markers"/>
 <path d="m5.292 3.969a3.175 3.175 0 0 0 3.175 3.175 3.175 3.175 0 0 0 3.175-3.175h-0.794a2.381 2.381 0 0 1-2.381 2.381 2.381 2.381 0 0 1-2.382-2.381z" fill="#fff" style="paint-order:stroke markers fill"/>
 <path d="M7.408 13.23h2.117l-.265-2.647h1.323L8.467 8.731 6.35 10.583h1.323" fill="#fff"/>
</svg>
